X: 4
T: No_103_Song_of_Those_Who_Remained_at_Home.krn
N: Derived from No_103_Song_of_Those_Who_Remained_at_Home.krn
%%abc-version 2.0
%%abcx-abcm2ps-target-version 5.9.1 (29 Sep 2008)
%%abc-creator hum2abc beta
%%abcx-conversion-date 2019/03/15 08:36:13
%%humdrum-veritas 1336728690
%%humdrum-veritas-data 581997107
%%linebreak <none>
%%barnumbers 0
L: 1/8
M: 2/4
K: C clef=bass
[K:clef=bass][M:2/4]F,2G,2 | 
A,/G,3/G,2- | 
G,4 ||  
[M:3/4]G,4z2 | 
G,2G,2G,2 | 
(3G,F,C, F, zA,2 | 
A,/G,3/A,2A,/G,3/ ||  
[M:2/4](3G,F,C, F, z | 
G,2A,2 | 
G,2G,3/C,/ | 
G,2G,2- | 
G, zA,2 ||  
[M:3/4]A,/G,3/A,2A,/G,3/ ||  
[M:2/4](3G,F,C, F, z | 
G,2A,2 | 
G,2G,3/C,/ | 
G,2G,2- | 
G,2z2 | 
G,4 | 
G,4 | 
(3G,F,C, F, z ||  
[M:3/4]A,/G,3/A,2A,/G,/ z ||  
[M:2/4](3G,F,C, A,/G,3/ | 
G,4 | 
(3G,F,C,G,2 | 
A,2A,/G,3/ ||  
[M:3/4](3G,F,C, F, zG,2 | 
(3G,F,C,F,2F,G, | 
G,6 |]  



